X:1
T:Buxtehude - Aria:  La Capricciosa in G Minor.
%%score { ( 1 2 ) | ( 3 4 ) }
L:1/8
Q:1/4=100
M:4/4
K:G
V:1 treble nm="Harpsichord" snm="Hch."
V:2 treble 
V:3 bass 
V:4 bass 
V:1
"^Partita 23" d2 d2 e2 e2 | d2 c2 B2 G2 | B2 d2 c2 B2 | A2 MA2 G4 :: B2 B2 c2 c2 | A2 PA>c MB2 GA | %6
 B>c d/D/E/=F/ z/ E/^F/G/ A/B/Pc | z/ d/Mc/B/ MA>G G2 G2 :| %8
V:2
 z/ B/A/B/ z/ B/A/B/ z/ c/B/c/ z/ c/B/c/ | z/ B/A/B/ z/ A/G/A/ z/ G/F/G/ z/ E/^D/E/ | %2
 z/ G/F/G/ z/ G/F/G/ z/ G/F/G/ z/ G/F/G/ | z/ E/D/E/ z/ D/C/D/ B,4 :: %4
 z/ G/F/G/ z/ G/F/G/ z/ G/F/G/ z/ G/F/G/ | z/ G/F/G/ z/ G/F G2 z2 | G2 x5 z/ F/ | G3 F x2 [B,D]2 :| %8
V:3
!f! z G, z G, z G, z G, |!f! z G, z F, z G, z B, |!f! z G, z G, z A, z D, | %3
!f! z G, z F, z/ G,/F,/G,/ D,/G,/B,,/D,/ :: z D,G, z z E,A,B, | CA, D2 G,,/G,/F,/G,/ E,/C/B,/A,/ | %6
 G,/E/D/C/ B,2 C2 A,2 | D z D2 z B,,/D,/ G,2 :| %8
V:4
 G,,2 G,,2 C,2 C,2 | D,2 D,2 E,2 E,2 | E,2 B,,2 A,,2 B,,2 | C,2 D,2 x4 :: G,,2 z E, A,,2 z2 | %5
 z2 z D, x4 | x8 | B,C x2 z/ G,,3/2- G,,2 :| %8

